;FLAVOR:Marlin
;TIME:11659
;Filament used: 31.1742m
;Layer height: 0.4
;MINX:210.8
;MINY:217.8
;MINZ:0.32
;MAXX:289.2
;MAXY:282.2
;MAXZ:130.12
;ARCWELDERPROCESSED
; Postprocessed by [ArcWelder](https://github.com/FormerLurker/ArcWelderLib)
; Copyright(C) 2021 - Brad Hochgesang
; Version: 1.2.0, Branch: HEAD, BuildDate: 2021-11-21T20:25:43Z
; resolution=0.05mm
; path_tolerance=5.0%
; max_radius=9999.00mm
; g90_influences_extruder=True
; allow_dynamic_precision=True
; default_xyz_precision=3
; default_e_precision=5
; extrusion_rate_variance_percent=5.0%

;Generated with Cura_SteamEngine 5.2.2
M140 S60
M105
M190 S60
M104 S200
M105
M109 S200
M82 ;absolute extrusion mode
M201 X500.00 Y500.00 Z100.00 E5000.00 ;Setup machine max acceleration
M203 X500.00 Y500.00 Z10.00 E50.00 ;Setup machine max feedrate
M204 P500.00 R1000.00 T500.00 ;Setup Print/Retract/Travel acceleration
M205 X8.00 Y8.00 Z0.40 E5.00 ;Setup Jerk
M220 S100 ;Reset Feedrate
M221 S100 ;Reset Flowrate

G28 ;Home

G92 E0 ;Reset Extruder
G1 Z2.0 F3000 ;Move Z Axis up
G1 X10.1 Y20 Z0.28 F5000.0 ;Move to start position
G1 X10.1 Y200.0 Z0.28 F1500.0 E15 ;Draw the first line
G1 X10.4 Y200.0 Z0.28 F5000.0 ;Move to side a little
G1 X10.4 Y20 Z0.28 F1500.0 E30 ;Draw the second line
G92 E0 ;Reset Extruder
G1 Z2.0 F3000 ;Move Z Axis up

G92 E0
G92 E0
G1 F2700 E-5
;LAYER_COUNT:325
;LAYER:0
M107
G1 F300 Z0.52
G0 F6000 X213.22 Y219.839 Z0.52
;TYPE:SKIRT
G1 F300 Z0.32
G1 F2700 E0
G3 X218.400 Y217.800 I5.181 J5.562 E0.57600 F1200
G1 X281.6 Y217.8 E6.96621
G3 X289.200 Y225.400 I-0.000 J7.600 E8.17272
G1 X289.2 Y237.6 E9.40627
G3 X288.812 Y240.022 I-7.983 J-0.037 E9.65518
G3 X289.200 Y242.400 I-6.984 J2.360 E9.89978
G1 X289.2 Y257.6 E11.43667
G3 X288.812 Y260.022 I-7.983 J-0.037 E11.68557
G3 X289.200 Y262.400 I-6.984 J2.360 E11.93018
G1 X289.2 Y273.834 E13.08628
G3 X286.974 Y279.208 I-7.600 J0.000 E13.68957
G3 X285.000 Y280.956 I-9.456 J-8.690 E13.95671
G3 X280.834 Y282.200 I-4.165 J-6.351 E14.40238
G1 X219.166 Y282.2 E20.63768
G3 X213.792 Y279.974 I-0.000 J-7.600 E21.24097
G3 X212.044 Y278.000 I8.690 J-9.456 E21.50812
G3 X210.800 Y273.834 I6.351 J-4.165 E21.95378
G1 X210.8 Y262.4 E23.10988
G3 X211.188 Y259.978 I7.983 J0.037 E23.35879
G3 X210.800 Y257.600 I6.984 J-2.360 E23.60339
G1 X210.8 Y242.4 E25.14027
G3 X211.188 Y239.978 I7.983 J0.037 E25.38918
G3 X210.800 Y237.600 I6.984 J-2.360 E25.63378
G1 X210.8 Y225.4 E26.86733
G3 X213.220 Y219.839 I7.599 J-0.000 E27.49784
G0 F6000 X214.004 Y220.212
G1 F1200 X214.591 Y219.767 E27.57232
G3 X218.400 Y218.600 I3.810 J5.637 E27.98086
G1 X281.6 Y218.6 E34.37107
G3 X288.400 Y225.400 I-0.001 J6.801 E35.45049
G1 X288.4 Y237.6 E36.68404
G3 X287.955 Y239.995 I-6.454 J0.040 E36.93173
G3 X288.400 Y242.400 I-6.190 J2.389 E37.18028
G1 X288.4 Y257.6 E38.71717
G3 X287.955 Y259.995 I-6.454 J0.040 E38.96486
G3 X288.400 Y262.400 I-6.190 J2.389 E39.21341
G1 X288.4 Y273.834 E40.36951
G3 X286.408 Y278.642 I-6.794 J0.002 E40.90923
G3 X284.495 Y280.331 I-8.761 J-7.995 E41.16784
G3 X280.834 Y281.400 I-3.664 J-5.743 E41.55848
G1 X219.166 Y281.4 E47.79378
G3 X214.358 Y279.408 I-0.002 J-6.794 E48.33350
G3 X212.669 Y277.495 I7.995 J-8.761 E48.59211
G3 X211.600 Y273.834 I5.743 J-3.664 E48.98274
G1 X211.6 Y262.4 E50.13885
G3 X212.045 Y260.005 I6.454 J-0.040 E50.38654
G3 X211.600 Y257.600 I6.190 J-2.389 E50.63509
G1 X211.6 Y242.4 E52.17197
G3 X212.045 Y240.005 I6.454 J-0.040 E52.41967
G3 X211.600 Y237.600 I6.190 J-2.389 E52.66822
G1 X211.6 Y225.4 E53.90177
G3 X214.004 Y220.212 I6.798 J-0.001 E54.49817
G0 F6000 X214.784 Y220.612
G1 F1200 X215.359 Y220.227 E54.56814
G3 X218.400 Y219.400 I3.040 J5.172 E54.89039
G1 X281.6 Y219.4 E61.28059
G3 X287.600 Y225.400 I-0.000 J6.000 E62.23302
G1 X287.6 Y237.6 E63.46657
G3 X287.093 Y239.989 I-5.721 J0.034 E63.71531
G3 X287.600 Y242.400 I-5.457 J2.406 E63.96610
G1 X287.6 Y257.6 E65.50299
G3 X287.093 Y259.989 I-5.721 J0.034 E65.75172
G3 X287.600 Y262.400 I-5.457 J2.406 E66.00252
G1 X287.6 Y273.834 E67.15862
G3 X285.843 Y278.077 I-6.006 J-0.002 E67.63483
G3 X283.993 Y279.701 I-7.902 J-7.136 E67.88438
G3 X280.834 Y280.600 I-3.157 J-5.092 E68.22059
G1 X219.166 Y280.6 E74.45589
G3 X214.923 Y278.843 I0.002 J-6.006 E74.93210
G3 X213.299 Y276.993 I7.136 J-7.902 E75.18165
G3 X212.400 Y273.834 I5.092 J-3.157 E75.51786
G1 X212.4 Y262.4 E76.67396
G3 X212.907 Y260.011 I5.721 J-0.034 E76.92269
G3 X212.400 Y257.600 I5.457 J-2.406 E77.17349
G1 X212.4 Y242.4 E78.71037
G3 X212.907 Y240.011 I5.721 J-0.034 E78.95910
G3 X212.400 Y237.600 I5.457 J-2.406 E79.20990
G1 X212.4 Y225.4 E80.44345
G3 X214.784 Y220.612 I6.002 J0.001 E81.00367
G0 F6000 X215.04 Y221.431
G1 F1200 X215.557 Y221.046 E81.06884
G3 X218.400 Y220.200 I2.841 J4.348 E81.37280
G1 X281.6 Y220.2 E87.76301
G3 X286.800 Y225.400 I0.001 J5.199 E88.58839
G1 X286.8 Y237.6 E89.82195
G3 X286.217 Y239.981 I-5.098 J0.014 E90.07211
G3 X286.800 Y242.400 I-4.802 J2.437 E90.32579
G1 X286.8 Y257.6 E91.86267
G3 X286.217 Y259.981 I-5.098 J0.014 E92.11283
G3 X286.800 Y262.400 I-4.802 J2.437 E92.36651
G1 X286.8 Y273.834 E93.52261
G3 X285.277 Y277.511 I-5.200 J0.000 E93.93525
G3 X283.495 Y279.067 I-7.108 J-6.342 E94.17517
G3 X280.834 Y279.800 I-2.660 J-4.461 E94.45741
G1 X219.166 Y279.8 E100.69271
G3 X215.489 Y278.277 I-0.000 J-5.200 E101.10535
G3 X213.933 Y276.495 I6.342 J-7.108 E101.34527
G3 X213.200 Y273.834 I4.461 J-2.660 E101.62751
G1 X213.2 Y262.4 E102.78362
G3 X213.783 Y260.019 I5.098 J-0.014 E103.03378
G3 X213.200 Y257.600 I4.802 J-2.437 E103.28745
G1 X213.2 Y242.4 E104.82434
G3 X213.783 Y240.019 I5.098 J-0.014 E105.07450
G3 X213.200 Y237.600 I4.802 J-2.437 E105.32818
G1 X213.2 Y225.4 E106.56173
G3 X215.040 Y221.431 I5.199 J-0.001 E107.01798
G0 F6000 X215.364 Y222.216
G1 F1200 X215.819 Y221.836 E107.07792
G3 X218.400 Y221.000 I2.581 J3.567 E107.35657
G1 X281.6 Y221 E113.74678
G3 X286.000 Y225.400 I-0.001 J4.401 E114.44509
G1 X286 Y237.6 E115.67864
G3 X285.277 Y240.001 I-4.232 J0.035 E115.93581
G3 X286.000 Y242.400 I-3.584 J2.388 E116.19281
G1 X286 Y257.6 E117.72969
G3 X285.277 Y260.001 I-4.232 J0.035 E117.98686
G3 X286.000 Y262.400 I-3.584 J2.388 E118.24386
G1 X286 Y273.834 E119.39996
G3 X284.711 Y276.945 I-4.395 J0.002 E119.74912
G3 X283.004 Y278.428 I-6.342 J-5.576 E119.97854
G3 X280.834 Y279.000 I-2.168 J-3.823 E120.20782
G1 X219.166 Y279 E126.44312
G3 X216.055 Y277.711 I-0.002 J-4.395 E126.79227
G3 X214.572 Y276.004 I5.576 J-6.342 E127.02170
G3 X214.000 Y273.834 I3.823 J-2.168 E127.25097
G1 X214 Y262.4 E128.40708
G3 X214.723 Y259.999 I4.232 J-0.035 E128.66425
G3 X214.000 Y257.600 I3.584 J-2.388 E128.92124
G1 X214 Y242.4 E130.45813
G3 X214.723 Y239.999 I4.232 J-0.035 E130.71530
G3 X214.000 Y237.600 I3.584 J-2.388 E130.97229
G1 X214 Y225.4 E132.20584
G3 X215.364 Y222.216 I4.394 J-0.002 E132.56556
G0 F6000 X215.755 Y222.958
G1 F1200 X216.147 Y222.592 E132.61979
G3 X218.400 Y221.800 I2.254 J2.810 E132.86571
G1 X281.6 Y221.8 E139.25591
G3 X285.200 Y225.400 I0.000 J3.600 E139.82716
G1 X285.2 Y237.6 E141.06071
G3 X284.275 Y240.004 I-3.565 J0.008 E141.32693
G3 X285.200 Y242.400 I-2.608 J2.383 E141.59259
G1 X285.2 Y257.6 E143.12947
G3 X284.275 Y260.004 I-3.565 J0.008 E143.39569
G3 X285.200 Y262.400 I-2.608 J2.383 E143.66135
G1 X285.2 Y273.834 E144.81745
G3 X284.146 Y276.380 I-3.603 J-0.000 E145.10303
G3 X282.519 Y277.781 I-5.450 J-4.684 E145.32103
G3 X280.834 Y278.200 I-1.684 J-3.176 E145.49814
G1 X219.166 Y278.2 E151.73344
G3 X216.620 Y277.146 I0.000 J-3.603 E152.01902
G3 X215.219 Y275.519 I4.684 J-5.450 E152.23701
G3 X214.800 Y273.834 I3.176 J-1.684 E152.41412
G1 X214.8 Y262.4 E153.57022
G3 X215.725 Y259.996 I3.565 J-0.008 E153.83643
G3 X214.800 Y257.600 I2.608 J-2.383 E154.10210
G1 X214.8 Y242.4 E155.63898
G3 X215.725 Y239.996 I3.565 J-0.008 E155.90520
G3 X214.800 Y237.600 I2.608 J-2.383 E156.17086
G1 X214.8 Y225.4 E157.40441
G3 X215.755 Y222.958 I3.598 J-0.001 E157.67552
G0 F6000 X216.216 Y223.647
G1 F1200 X216.542 Y223.305 E157.72329
G3 X218.400 Y222.600 I1.857 J2.094 E157.92842
G1 X281.6 Y222.6 E164.31862
G3 X284.400 Y225.400 I0.001 J2.799 E164.76277
G1 X284.4 Y237.6 E165.99632
G3 X283.040 Y240.007 I-2.822 J-0.007 E166.28807
G3 X284.400 Y242.400 I-1.408 J2.383 E166.57903
G1 X284.4 Y257.6 E168.11591
G3 X283.040 Y260.007 I-2.822 J-0.007 E168.40767
G3 X284.400 Y262.400 I-1.408 J2.383 E168.69862
G1 X284.4 Y273.834 E169.85472
G3 X283.580 Y275.814 I-2.807 J-0.003 E170.07683
G3 X282.045 Y277.125 I-4.613 J-3.847 E170.28199
G3 X280.834 Y277.400 I-1.215 J-2.548 E170.40847
G1 X219.166 Y277.4 E176.64377
G3 X217.186 Y276.580 I0.003 J-2.807 E176.86587
G3 X215.875 Y275.045 I3.847 J-4.613 E177.07104
G3 X215.600 Y273.834 I2.548 J-1.215 E177.19751
G1 X215.6 Y262.4 E178.35361
G3 X216.960 Y259.993 I2.822 J0.007 E178.64537
G3 X215.600 Y257.600 I1.408 J-2.383 E178.93632
G1 X215.6 Y242.4 E180.4732
G3 X216.960 Y239.993 I2.822 J0.007 E180.76496
G3 X215.600 Y237.600 I1.408 J-2.383 E181.05591
G1 X215.6 Y225.4 E182.28947
G3 X216.216 Y223.647 I2.811 J0.003 E182.48071
G0 F6000 X216.75 Y224.27
G1 F1200 X217.007 Y223.965 E182.52104
G3 X218.400 Y223.400 I1.395 J1.439 E182.67660
G1 X281.6 Y223.4 E189.0668
G3 X283.600 Y225.400 I-0.000 J2.000 E189.38392
G1 X283.6 Y237.6 E190.61747
G3 X281.600 Y239.600 I-2.000 J-0.000 E190.93459
G1 X277.4 Y239.6 E191.35925
G3 X275.400 Y237.600 I0.000 J-2.000 E191.67637
G1 X275.4 Y236.6 E191.77748
G1 X273.6 Y236.6 E191.95948
G1 X273.6 Y243.4 E192.64703
G1 X275.4 Y243.4 E192.82903
G3 X275.440 Y242.002 I6.975 J-0.500 E192.97059
G3 X277.400 Y240.400 I1.961 J0.399 E193.24726
G1 X281.6 Y240.4 E193.67193
G3 X283.600 Y242.400 I-0.000 J2.000 E193.98904
G1 X283.6 Y257.6 E195.52593
G3 X281.600 Y259.600 I-2.000 J-0.000 E195.84304
G1 X277.4 Y259.6 E196.26771
G3 X275.400 Y257.600 I0.000 J-2.000 E196.58482
G1 X275.4 Y256.6 E196.68594
G1 X273.6 Y256.6 E196.86793
G1 X273.6 Y263.4 E197.55549
G1 X275.4 Y263.4 E197.73749
G3 X275.440 Y262.002 I6.975 J-0.500 E197.87904
G3 X277.400 Y260.400 I1.961 J0.399 E198.15571
G1 X281.6 Y260.4 E198.58038
G3 X283.600 Y262.400 I-0.000 J2.000 E198.89750
G1 X283.6 Y273.834 E200.0536
G3 X283.014 Y275.248 I-1.999 J0.000 E200.21216
G3 X281.939 Y276.267 I-5.651 J-4.885 E200.36207
G3 X280.834 Y276.600 I-1.104 J-1.663 E200.48025
G1 X219.166 Y276.6 E206.71556
G3 X217.752 Y276.014 I-0.000 J-1.999 E206.87412
G3 X216.733 Y274.939 I4.885 J-5.651 E207.02403
G3 X216.400 Y273.834 I1.663 J-1.104 E207.14221
G1 X216.4 Y262.4 E208.29832
G3 X218.400 Y260.400 I2.000 J0.000 E208.61543
G1 X222.6 Y260.4 E209.0401
G3 X224.600 Y262.400 I-0.000 J2.000 E209.35721
G1 X224.6 Y263.4 E209.45832
G1 X226.4 Y263.4 E209.64032
G1 X226.4 Y256.6 E210.32788
G1 X224.6 Y256.6 E210.50988
G3 X224.560 Y257.998 I-6.975 J0.500 E210.65143
G3 X222.600 Y259.600 I-1.961 J-0.399 E210.92810
G1 X218.4 Y259.6 E211.35277
G3 X216.400 Y257.600 I0.000 J-2.000 E211.66988
G1 X216.4 Y242.4 E213.20677
G3 X218.400 Y240.400 I2.000 J0.000 E213.52389
G1 X222.6 Y240.4 E213.94855
G3 X224.600 Y242.400 I-0.000 J2.000 E214.26567
G1 X224.6 Y243.4 E214.36678
G1 X226.4 Y243.4 E214.54878
G1 X226.4 Y236.6 E215.23633
G1 X224.6 Y236.6 E215.41833
G3 X224.560 Y237.998 I-6.975 J0.500 E215.55989
G3 X222.600 Y239.600 I-1.961 J-0.399 E215.83656
G1 X218.4 Y239.6 E216.26122
G3 X216.400 Y237.600 I0.000 J-2.000 E216.57834
G1 X216.4 Y225.4 E217.81189
G3 X216.750 Y224.270 I1.999 J-0.000 E217.93312
G0 F6000 X217.357 Y224.807
G1 F1200 X217.543 Y224.56 E217.96438
G3 X218.400 Y224.200 I0.856 J0.837 E218.06061
G1 X281.6 Y224.2 E224.45082
G3 X282.800 Y225.400 I0.000 J1.200 E224.64086
G1 X282.8 Y237.6 E225.87441
G3 X281.600 Y238.800 I-1.200 J0.000 E226.06446
G1 X277.4 Y238.8 E226.48912
G3 X276.200 Y237.600 I-0.000 J-1.200 E226.67917
G1 X276.2 Y235.8 E226.86117
G1 X272.8 Y235.8 E227.20494
G1 X272.8 Y244.2 E228.05427
G1 X276.2 Y244.2 E228.39805
G1 X276.2 Y242.4 E228.58005
G3 X277.400 Y241.200 I1.200 J-0.000 E228.77009
G1 X281.6 Y241.2 E229.19476
G3 X282.800 Y242.400 I0.000 J1.200 E229.38480
G1 X282.8 Y257.6 E230.92169
G3 X281.600 Y258.800 I-1.200 J0.000 E231.11173
G1 X277.4 Y258.8 E231.5364
G3 X276.200 Y257.600 I-0.000 J-1.200 E231.72644
G1 X276.2 Y255.8 E231.90844
G1 X272.8 Y255.8 E232.25222
G1 X272.8 Y264.2 E233.10155
G1 X276.2 Y264.2 E233.44533
G1 X276.2 Y262.4 E233.62732
G3 X277.400 Y261.200 I1.200 J-0.000 E233.81737
G1 X281.6 Y261.2 E234.24203
G3 X282.800 Y262.400 I0.000 J1.200 E234.43208
G1 X282.8 Y273.834 E235.58818
G3 X282.449 Y274.683 I-1.209 J-0.003 E235.68320
G1 X281.683 Y275.449 E235.79274
G3 X280.834 Y275.800 I-0.849 J-0.850 E235.88777
G1 X219.166 Y275.8 E242.12308
G3 X218.317 Y275.449 I0.003 J-1.209 E242.21810
G1 X217.551 Y274.683 E242.32763
G3 X217.200 Y273.834 I0.850 J-0.849 E242.42267
G1 X217.2 Y262.4 E243.57877
G3 X218.400 Y261.200 I1.200 J-0.000 E243.76881
G1 X222.6 Y261.2 E244.19348
G3 X223.800 Y262.400 I0.000 J1.200 E244.38352
G1 X223.8 Y264.2 E244.56552
G1 X227.2 Y264.2 E244.9093
G1 X227.2 Y255.8 E245.75863
G1 X223.8 Y255.8 E246.10241
G1 X223.8 Y257.6 E246.28441
G3 X222.600 Y258.800 I-1.200 J0.000 E246.47445
G1 X218.4 Y258.8 E246.89912
G3 X217.200 Y257.600 I-0.000 J-1.200 E247.08916
G1 X217.2 Y242.4 E248.62605
G3 X218.400 Y241.200 I1.200 J-0.000 E248.81609
G1 X222.6 Y241.2 E249.24076
G3 X223.800 Y242.400 I0.000 J1.200 E249.43080
G1 X223.8 Y244.2 E249.6128
G1 X227.2 Y244.2 E249.95658
G1 X227.2 Y235.8 E250.80591
G1 X223.8 Y235.8 E251.14968
G1 X223.8 Y237.6 E251.33168
G3 X222.600 Y238.800 I-1.200 J0.000 E251.52173
G1 X218.4 Y238.8 E251.94639
G3 X217.200 Y237.600 I-0.000 J-1.200 E252.13644
G1 X217.2 Y225.4 E253.36999
G3 X217.357 Y224.807 I1.199 J0.000 E253.43254
G0 F6000 X218.04 Y225.227
G1 F1200 X218.15 Y225.088 E253.45046
G1 X218.331 Y225 E253.47081
G1 X281.6 Y225 E259.86799
G3 X282.000 Y225.331 I-0.009 J0.418 E259.92421
G1 X282 Y237.6 E261.16474
G3 X281.669 Y238.000 I-0.418 J-0.009 E261.22101
G1 X277.4 Y238 E261.65265
G3 X277.000 Y237.669 I0.009 J-0.418 E261.70892
G1 X277 Y235 E261.97878
G1 X272.09 Y235 E262.47524
G1 X272 Y235.043 E262.48532
G1 X272 Y244.911 E263.48308
G1 X272.043 Y245 E263.49308
G1 X277 Y245 E263.99428
G1 X277 Y242.4 E264.25717
G3 X277.331 Y242.000 I0.418 J0.009 E264.31340
G1 X281.6 Y242 E264.74504
G3 X282.000 Y242.331 I-0.009 J0.418 E264.80127
G1 X282 Y257.6 E266.34513
G3 X281.669 Y258.000 I-0.418 J-0.009 E266.40139
G1 X277.4 Y258 E266.83303
G3 X277.000 Y257.669 I0.009 J-0.418 E266.88930
G1 X277 Y255 E267.15917
G1 X272.09 Y255 E267.65562
G1 X272 Y255.043 E267.6657
G1 X272 Y264.911 E268.66347
G1 X272.043 Y265 E268.67346
G1 X277 Y265 E269.17467
G1 X277 Y262.4 E269.43755
G3 X277.331 Y262.000 I0.418 J0.009 E269.49378
G1 X281.6 Y262 E269.92542
G3 X282.000 Y262.331 I-0.009 J0.418 E269.98165
G1 X282 Y273.834 E271.14473
G1 X281.952 Y274.048 E271.1669
G1 X281.117 Y274.883 E271.2863
G1 X280.929 Y275 E271.30869
G1 X219.166 Y275 E277.5536
G1 X218.952 Y274.952 E277.57577
G1 X218.117 Y274.117 E277.69517
G1 X218 Y273.929 E277.71756
G1 X218 Y262.4 E278.88327
G3 X218.331 Y262.000 I0.418 J0.009 E278.93949
G1 X222.6 Y262 E279.37113
G3 X223.000 Y262.331 I-0.009 J0.418 E279.42736
G1 X223 Y265 E279.69723
G1 X228 Y265 E280.20278
G1 X228 Y255 E281.21389
G1 X223.09 Y255 E281.71034
G1 X223 Y255.043 E281.72043
G1 X223 Y257.6 E281.97897
G3 X222.669 Y258.000 I-0.418 J-0.009 E282.03523
G1 X218.4 Y258 E282.46688
G3 X218.000 Y257.669 I0.009 J-0.418 E282.52314
G1 X218 Y242.4 E284.067
G3 X218.331 Y242.000 I0.418 J0.009 E284.12323
G1 X222.6 Y242 E284.55487
G3 X223.000 Y242.331 I-0.009 J0.418 E284.61110
G1 X223 Y245 E284.88096
G1 X228 Y245 E285.38652
G1 X228 Y235 E286.39762
G1 X223.09 Y235 E286.89408
G1 X223 Y235.043 E286.90416
G1 X223 Y237.6 E287.1627
G3 X222.669 Y238.000 I-0.418 J-0.009 E287.21897
G1 X218.4 Y238 E287.65061
G3 X218.000 Y237.669 I0.009 J-0.418 E287.70688
G1 X218 Y225.4 E288.94741
G1 X218.04 Y225.227 E288.96536
G1 F2700 E283.96536
G1 F300 Z0.52
;MESH:Baryton - Lower body^Baryton Assembly-1.STL
G0 F6000 X235.651 Y235.441 Z0.52
;TYPE:WALL-INNER
G1 F300 Z0.32
G1 F2700 E288.96536
G3 X234.170 Y235.388 I-0.624 J-3.285 E289.11614 F1200
G1 X233.35 Y235.041 E289.20617
G3 X231.946 Y232.779 I1.952 J-2.778 E289.48274
