;FLAVOR:Marlin
;TIME:6327
;Filament used: 8.94535m
;Layer height: 0.2
;MINX:211.439
;MINY:207.923
;MINZ:0.32
;MAXX:288.561
;MAXY:304.4
;MAXZ:19.12
;ARCWELDERPROCESSED
; Postprocessed by [ArcWelder](https://github.com/FormerLurker/ArcWelderLib)
; Copyright(C) 2021 - Brad Hochgesang
; Version: 1.2.0, Branch: HEAD, BuildDate: 2021-11-21T20:25:43Z
; resolution=0.05mm
; path_tolerance=5.0%
; max_radius=9999.00mm
; g90_influences_extruder=True
; allow_dynamic_precision=True
; default_xyz_precision=3
; default_e_precision=5
; extrusion_rate_variance_percent=5.0%

;Generated with Cura_SteamEngine 5.2.1
M140 S60
M105
M190 S60
M104 S200
M105
M109 S200
M82 ;absolute extrusion mode
M201 X500.00 Y500.00 Z100.00 E5000.00 ;Setup machine max acceleration
M203 X500.00 Y500.00 Z10.00 E50.00 ;Setup machine max feedrate
M204 P500.00 R1000.00 T500.00 ;Setup Print/Retract/Travel acceleration
M205 X8.00 Y8.00 Z0.40 E5.00 ;Setup Jerk
M220 S100 ;Reset Feedrate
M221 S100 ;Reset Flowrate

G28 ;Home

G92 E0 ;Reset Extruder
G1 Z2.0 F3000 ;Move Z Axis up
G1 X10.1 Y20 Z0.28 F5000.0 ;Move to start position
G1 X10.1 Y200.0 Z0.28 F1500.0 E15 ;Draw the first line
G1 X10.4 Y200.0 Z0.28 F5000.0 ;Move to side a little
G1 X10.4 Y20 Z0.28 F1500.0 E30 ;Draw the second line
G92 E0 ;Reset Extruder
G1 Z2.0 F3000 ;Move Z Axis up

G92 E0
G92 E0
G1 F2700 E-5
;LAYER_COUNT:94
;LAYER:0
M107
G1 F300 Z0.52
G0 F6000 X213.859 Y216.639 Z0.52
;TYPE:SKIRT
G1 F300 Z0.32
G1 F2700 E0
G3 X219.039 Y214.600 I5.181 J5.562 E0.57601 F1200
G1 X241.804 Y214.6 E2.87779
G3 X244.754 Y210.210 I7.564 J1.896 E3.42296
G3 X247.245 Y208.595 I9.086 J11.285 E3.72373
G3 X250.370 Y207.923 I3.127 J6.940 E4.04919
G3 X253.333 Y208.082 I0.707 J14.512 E4.34981
G3 X256.255 Y209.377 I-1.556 J7.456 E4.67524
G3 X258.559 Y211.250 I-7.963 J12.149 E4.97606
G3 X260.350 Y214.600 I-6.109 J5.420 E5.36356
G1 X280.96 Y214.6 E7.44746
G3 X288.560 Y222.200 I-0.000 J7.600 E8.65397
G1 X288.561 Y296.8 E16.19684
G3 X280.961 Y304.400 I-7.600 J-0.000 E17.40335
G1 X219.04 Y304.4 E23.66424
G3 X211.440 Y296.800 I0.000 J-7.600 E24.87075
G1 X211.439 Y222.2 E32.41362
G3 X213.859 Y216.639 I7.599 J-0.000 E33.04413
G0 F6000 X214.643 Y217.012
G1 F1200 X215.23 Y216.567 E33.11861
G3 X219.039 Y215.400 I3.810 J5.637 E33.52715
G1 X242.385 Y215.4 E35.88768
G3 X243.362 Y212.911 I11.913 J3.240 E36.15865
G3 X245.225 Y210.857 I5.866 J3.449 E36.44088
G3 X247.647 Y209.292 I8.397 J10.339 E36.73310
G3 X250.370 Y208.723 I2.723 J6.233 E37.01624
G3 X253.248 Y208.882 I0.707 J13.329 E37.30833
G3 X255.784 Y210.024 I-1.465 J6.639 E37.59141
G3 X258.019 Y211.847 I-7.258 J11.180 E37.88367
G3 X259.396 Y214.253 I-5.085 J4.507 E38.16583
G1 X259.769 Y215.4 E38.28778
G1 X280.96 Y215.4 E40.43042
G3 X287.760 Y222.200 I-0.001 J6.801 E41.50984
G1 X287.761 Y296.8 E49.05271
G3 X280.961 Y303.600 I-6.801 J-0.001 E50.13213
G1 X219.04 Y303.6 E56.39301
G3 X212.240 Y296.800 I0.001 J-6.801 E57.47243
G1 X212.239 Y222.2 E65.0153
G3 X214.643 Y217.012 I6.798 J-0.001 E65.61170
G0 F6000 X215.423 Y217.412
G1 F1200 X215.998 Y217.028 E65.68162
G3 X219.039 Y216.200 I3.037 J5.156 E66.00391
G1 X242.998 Y216.2 E68.42643
G3 X244.095 Y213.244 I11.669 J2.649 E68.74624
G3 X245.695 Y211.504 I5.136 J3.117 E68.98663
G3 X248.045 Y209.992 I7.673 J9.344 E69.26988
G3 X250.370 Y209.523 I2.320 J5.506 E69.51110
G3 X253.158 Y209.682 I0.707 J12.126 E69.79415
G3 X255.314 Y210.671 I-1.385 J5.864 E70.03536
G3 X257.476 Y212.441 I-6.545 J10.200 E70.31858
G3 X258.635 Y214.501 I-4.563 J3.923 E70.55895
G3 X259.165 Y216.200 I-14.327 J5.401 E70.73895
G1 X280.96 Y216.2 E72.94266
G3 X286.960 Y222.200 I-0.000 J6.000 E73.89510
G1 X286.961 Y296.8 E81.43796
G3 X280.961 Y302.800 I-6.000 J-0.000 E82.39039
G1 X219.04 Y302.8 E88.65128
G3 X213.040 Y296.800 I0.000 J-6.000 E89.60371
G1 X213.039 Y222.2 E97.14657
G3 X215.423 Y217.412 I6.002 J0.001 E97.70680
G0 F6000 X215.679 Y218.231
G1 F1200 X216.196 Y217.846 E97.77197
G3 X219.039 Y217.000 I2.841 J4.348 E98.07593
G1 X243.645 Y217 E100.56387
G3 X244.826 Y213.583 I10.951 J1.872 E100.93121
G3 X246.166 Y212.151 I4.417 J2.790 E101.13056
G3 X248.437 Y210.696 I6.960 J8.363 E101.40405
G3 X250.370 Y210.323 I1.936 J4.837 E101.60417
G3 X253.061 Y210.482 I0.707 J10.886 E101.87750
G3 X254.843 Y211.318 I-1.272 J5.028 E102.07760
G3 X256.927 Y213.031 I-5.829 J9.215 E102.35114
G3 X257.874 Y214.748 I-4.009 J3.331 E102.55046
G3 X258.509 Y217.000 I-10.943 J4.301 E102.78748
G1 X280.96 Y217 E105.05752
G3 X286.160 Y222.200 I0.001 J5.199 E105.88290
G1 X286.161 Y296.8 E113.42577
G3 X280.961 Y302.000 I-5.199 J0.001 E114.25115
G1 X219.04 Y302 E120.51203
G3 X213.840 Y296.800 I-0.001 J-5.199 E121.33742
G1 X213.839 Y222.2 E128.88029
G3 X215.679 Y218.231 I5.199 J-0.001 E129.33653
G0 F6000 X216.003 Y219.016
G1 F1200 X216.458 Y218.636 E129.39647
G3 X219.039 Y217.800 I2.581 J3.567 E129.67512
G1 X244.394 Y217.8 E132.23879
G3 X244.604 Y216.339 I4.272 J-0.131 E132.38871
G3 X245.262 Y214.445 I14.295 J3.905 E132.59154
G3 X246.636 Y212.798 I3.961 J1.907 E132.81047
G3 X248.283 Y211.649 I9.368 J11.673 E133.01361
G3 X250.370 Y211.123 I2.085 J3.871 E133.23330
G3 X252.376 Y211.163 I0.707 J14.864 E133.43627
G3 X254.373 Y211.965 I-0.591 J4.358 E133.65594
G3 X255.972 Y213.178 I-8.113 J12.355 E133.85897
G3 X257.113 Y214.995 I-3.040 J3.175 E134.07797
G3 X257.695 Y216.914 I-13.935 J5.274 E134.28083
G3 X257.755 Y217.800 I-3.190 J0.661 E134.37081
G1 X280.96 Y217.8 E136.71708
G3 X285.360 Y222.200 I-0.001 J4.401 E137.41539
G1 X285.361 Y296.8 E144.95826
G3 X280.961 Y301.200 I-4.401 J-0.001 E145.65657
G1 X219.04 Y301.2 E151.91746
G3 X214.640 Y296.800 I0.001 J-4.401 E152.61577
G1 X214.639 Y222.2 E160.15863
G3 X216.003 Y219.016 I4.394 J-0.002 E160.51835
G0 F6000 X216.394 Y219.758
G1 F1200 X216.786 Y219.392 E160.57258
G3 X219.039 Y218.600 I2.254 J2.810 E160.81850
G1 X245.312 Y218.6 E163.47499
G3 X245.364 Y216.587 I3.334 J-0.921 E163.68138
G3 X246.005 Y214.747 I12.429 J3.298 E163.87851
G3 X247.107 Y213.445 I3.211 J1.601 E164.05245
G3 X248.708 Y212.330 I8.210 J10.082 E164.24983
G3 X250.370 Y211.923 I1.660 J3.182 E164.42433
G3 X252.319 Y211.963 I0.707 J13.054 E164.62155
G3 X253.902 Y212.612 I-0.533 J3.556 E164.79601
G3 X255.456 Y213.792 I-7.115 J10.984 E164.99342
G3 X256.353 Y215.243 I-2.519 J2.560 E165.16737
G3 X256.917 Y217.108 I-12.084 J4.672 E165.36448
G3 X256.838 Y218.600 I-3.100 J0.584 E165.51675
G1 X280.96 Y218.6 E167.95575
G3 X284.560 Y222.200 I0.000 J3.600 E168.52700
G1 X284.561 Y296.8 E176.06987
G3 X280.961 Y300.400 I-3.600 J0.000 E176.64112
G1 X219.04 Y300.4 E182.90201
G3 X215.440 Y296.800 I-0.000 J-3.600 E183.47326
G1 X215.439 Y222.2 E191.01612
G3 X216.394 Y219.758 I3.598 J-0.001 E191.28723
G0 F6000 X216.855 Y220.447
G1 F1200 X217.181 Y220.105 E191.33501
G3 X219.039 Y219.400 I1.857 J2.094 E191.54013
G1 X246.396 Y219.4 E194.30622
G3 X245.989 Y217.633 I4.961 J-2.073 E194.49057
G3 X246.125 Y216.834 I2.809 J0.067 E194.57273
G3 X246.746 Y215.054 I10.759 J2.755 E194.76347
G3 X247.578 Y214.092 I2.477 J1.301 E194.89307
G3 X249.127 Y213.014 I7.190 J8.680 E195.08402
G3 X250.370 Y212.723 I1.246 J2.523 E195.21409
G3 X252.255 Y212.763 I0.707 J11.118 E195.40486
G3 X253.431 Y213.259 I-0.475 J2.769 E195.53491
G3 X254.934 Y214.401 I-6.103 J9.592 E195.72590
G3 X255.592 Y215.490 I-2.005 J1.955 E195.85553
G3 X256.137 Y217.295 I-10.415 J4.130 E196.04630
G3 X256.029 Y218.566 I-2.788 J0.403 E196.17627
G1 X255.758 Y219.4 E196.26493
G1 X280.96 Y219.4 E198.81313
G3 X283.760 Y222.200 I0.001 J2.799 E199.25727
G1 X283.761 Y296.8 E206.80014
G3 X280.961 Y299.600 I-2.799 J0.001 E207.24428
G1 X219.04 Y299.6 E213.50516
G3 X216.240 Y296.800 I-0.001 J-2.799 E213.94931
G1 X216.239 Y222.2 E221.49217
G3 X216.855 Y220.447 I2.811 J0.003 E221.68342
G0 F6000 X217.389 Y221.07
G1 F1200 X217.646 Y220.765 E221.72375
G3 X219.039 Y220.200 I1.395 J1.439 E221.87931
G1 X247.604 Y220.2 E224.76754
G3 X247.323 Y219.662 I1.106 J-0.920 E224.82917
G1 X246.886 Y218.318 E224.97207
G3 X246.886 Y217.082 I1.892 J-0.618 E225.09890
G1 X247.323 Y215.738 E225.2418
G3 X248.048 Y214.739 I1.893 J0.611 E225.36845
G1 X249.193 Y213.906 E225.51162
G3 X250.370 Y213.523 I1.176 J1.613 E225.63863
G1 X251.784 Y213.523 E225.7816
G3 X252.961 Y213.906 I-0.000 J2.001 E225.90860
G1 X254.106 Y214.739 E226.05177
G3 X254.831 Y215.738 I-1.172 J1.613 E226.17842
G1 X255.268 Y217.082 E226.32132
G3 X255.268 Y218.318 I-1.892 J0.618 E226.44815
G1 X254.831 Y219.662 E226.59104
G3 X254.549 Y220.200 I-1.477 J-0.431 E226.65274
G1 X280.96 Y220.2 E229.32317
G3 X282.960 Y222.200 I-0.000 J2.000 E229.64029
G1 X282.961 Y296.8 E237.18316
G3 X280.961 Y298.800 I-2.000 J-0.000 E237.50027
G1 X219.04 Y298.8 E243.76115
G3 X217.040 Y296.800 I0.000 J-2.000 E244.07827
G1 X217.039 Y222.2 E251.62113
G3 X217.389 Y221.070 I1.999 J-0.000 E251.74236
G0 F6000 X217.996 Y221.607
G1 F1200 X218.182 Y221.36 E251.77362
G3 X219.039 Y221.000 I0.856 J0.837 E251.86985
G1 X249.985 Y221 E254.99883
G1 X249.664 Y220.847 E255.03478
G1 X248.519 Y220.014 E255.17795
G3 X248.084 Y219.415 I0.706 J-0.970 E255.25370
G1 X247.647 Y218.071 E255.3966
G3 X247.647 Y217.329 I1.140 J-0.371 E255.47253
G1 X248.084 Y215.985 E255.61543
G3 X248.519 Y215.386 I1.147 J0.376 E255.69117
G1 X249.664 Y214.553 E255.83434
G3 X250.370 Y214.323 I0.702 J0.955 E255.91035
G1 X251.784 Y214.323 E256.05332
G3 X252.490 Y214.553 I-0.000 J1.199 E256.12930
G1 X253.635 Y215.386 E256.27247
G3 X254.070 Y215.985 I-0.706 J0.970 E256.34822
G1 X254.507 Y217.329 E256.49112
G3 X254.507 Y218.071 I-1.139 J0.371 E256.56705
G1 X254.07 Y219.415 E256.70995
G3 X253.635 Y220.014 I-1.147 J-0.376 E256.78569
G1 X252.49 Y220.847 E256.92886
G1 X252.219 Y220.996 E256.96013
G1 X280.96 Y221 E259.86615
G3 X282.160 Y222.200 I0.000 J1.200 E260.05620
G1 X282.161 Y296.8 E267.59906
G3 X280.961 Y298.000 I-1.200 J0.000 E267.78911
G1 X219.04 Y298 E274.04999
G3 X217.840 Y296.800 I-0.000 J-1.200 E274.24003
G1 X217.839 Y222.2 E281.7829
G3 X217.996 Y221.607 I1.199 J0.000 E281.84545
G0 F6000 X218.678 Y222.027
G1 F1200 X218.789 Y221.888 E281.86343
G1 X218.97 Y221.8 E281.88378
G1 X280.96 Y221.8 E288.15164
G3 X281.360 Y222.131 I-0.009 J0.418 E288.20787
G1 X281.361 Y296.8 E295.75771
G3 X281.030 Y297.200 I-0.418 J-0.009 E295.81398
G1 X219.04 Y297.2 E302.08184
G3 X218.640 Y296.869 I0.009 J-0.418 E302.13810
G1 X218.639 Y222.2 E309.68795
G1 X218.678 Y222.027 E309.70588
G1 F2700 E304.70588
G1 F300 Z0.52
G0 F6000 X248.408 Y217.824 Z0.52
G1 F300 Z0.32
G1 F2700 E309.70588
G1 F1200 X248.408 Y217.576 E309.73095
G1 X248.845 Y216.232 E309.87385
G1 X248.99 Y216.033 E309.89874
G1 X250.135 Y215.2 E310.04191
G1 X250.37 Y215.123 E310.06692
G1 X251.784 Y215.123 E310.20989
G1 X252.019 Y215.2 E310.23489
G1 X253.164 Y216.033 E310.37806
G1 X253.309 Y216.232 E310.40295
G1 X253.746 Y217.576 E310.54585
G1 X253.746 Y217.824 E310.57093
G1 X253.309 Y219.168 E310.71382
G1 X253.164 Y219.367 E310.73872
G1 X252.019 Y220.2 E310.88189
G1 X251.784 Y220.277 E310.90689
G1 X250.37 Y220.277 E311.04986
G1 X250.135 Y220.2 E311.07486
G1 X248.99 Y219.367 E311.21803
G1 X248.845 Y219.168 E311.24293
G1 X248.408 Y217.824 E311.38582
G0 F6000 X249.208 Y217.7
G1 F1200 X249.565 Y216.602 E311.50256
G1 X250.499 Y215.923 E311.61932
G1 X251.655 Y215.923 E311.7362
G1 X252.589 Y216.602 E311.85296
G1 X252.946 Y217.7 E311.9697
G1 X252.589 Y218.798 E312.08644
G1 X251.655 Y219.477 E312.2032
G1 X250.499 Y219.477 E312.32008
G1 X249.565 Y218.798 E312.43683
G1 X249.208 Y217.7 E312.55358
G0 F6000 X250.05 Y217.7
G1 F1200 X250.246 Y217.097 E312.61769
G1 X250.76 Y216.723 E312.68196
G1 X251.394 Y216.723 E312.74606
G1 X251.908 Y217.097 E312.81033
G1 X252.104 Y217.7 E312.87444
G1 X251.908 Y218.303 E312.93855
G1 X251.394 Y218.677 E313.00283
G1 X250.76 Y218.677 E313.06693
G1 X250.246 Y218.303 E313.1312
G1 X250.05 Y217.7 E313.19531
G0 F6000 X250.891 Y217.7
G3 X250.926 Y217.808 I0.186 J-0.001 E313.29989 F1200
G1 X250.891 Y217.7 E313.31137
G1 F2700 E308.31137
G1 F300 Z0.52
G0 F6000 X276.532 Y273.895 Z0.52
G1 F300 Z0.32
G1 F2700 E313.31137
G1 F1200 X277.396 Y274.176 E313.40323
G1 X277.396 Y275.078 E313.49443
G1 X277.016 Y275.348 E313.54157
G1 X276.152 Y275.067 E313.63343
G1 X276.152 Y274.165 E313.72463
G1 X276.532 Y273.895 E313.77176
G1 F2700 E308.77176
G1 F300 Z0.52
G0 F6000 X277.418 Y292.149 Z0.52
G1 F300 Z0.32
G1 F2700 E313.77176
G1 F1200 X277.684 Y292.343 E313.80505
G1 X277.684 Y293.248 E313.89656
G1 X276.822 Y293.529 E313.98823
G1 X276.556 Y293.335 E314.02152
G1 X276.556 Y292.43 E314.11302
G1 X277.418 Y292.149 E314.2047
G1 F2700 E309.2047
G1 F300 Z0.52
G0 F6000 X223.465 Y292.325 Z0.52
G1 F300 Z0.32
G1 F2700 E314.2047
G1 F1200 X223.465 Y293.23 E314.2962
G1 X222.603 Y293.511 E314.38787
G1 X222.337 Y293.317 E314.42116
G1 X222.337 Y292.412 E314.51267
G1 X223.199 Y292.131 E314.60434
G1 X223.465 Y292.325 E314.63763
G1 F2700 E309.63763
G1 F300 Z0.52
G0 F6000 X223.059 Y275.678 Z0.52
G1 F300 Z0.32
G1 F2700 E314.63763
G1 F1200 X222.52 Y274.936 E314.73036
G1 X222.685 Y274.336 E314.79327
G1 X223.535 Y274.059 E314.88367
G1 X224.074 Y274.801 E314.9764
G1 X223.909 Y275.401 E315.03932
G1 X223.059 Y275.678 E315.12971
G1 F2700 E310.12971
G1 F300 Z0.52
;MESH:Baryton - Lower Neck.STL
G0 F6000 X219.378 Y275.614 Z0.52
;TYPE:WALL-OUTER
G1 F300 Z0.32
G1 F2700 E315.12971
G1 F737.3 X219.352 Y275.283 E315.15703
G1 F784.3 X219.338 Y274.913 E315.18567
G1 F790.8 X219.347 Y274.477 E315.21912
G1 F747.7 X219.376 Y274.087 E315.25085
G1 F2700 E310.25085
G1 F300 Z0.52
G0 F6000 X219.362 Y292.412 Z0.52
G1 F300 Z0.32
G1 F2700 E315.25085
G1 F772.9 X219.34 Y292.862 E315.28622
G1 F798.7 X219.34 Y293.165 E315.30923
G1 F769.2 X219.363 Y293.609 E315.3443
G1 F2700 E310.3443
G1 F300 Z0.52
G0 F6000 X221.108 Y296.364 Z0.52
G1 F300 Z0.32
G1 F2700 E315.3443
G3 X219.473 Y294.425 I2.098 J-3.428 E315.62823 F551
G1 X219.476 Y296.364 E315.84168
G1 X221.108 Y296.364 E316.02134
G0 F6000 X222.252 Y296.579
G1 F1142.9 X222.49 Y296.598 E316.03401
G0 F6000 X223.653 Y296.601
G1 F1142.9 X223.875 Y296.584 E316.04583
G1 F2700 E311.04583
G1 F300 Z0.52
G0 F6000 X226.943 Y295.599 Z0.52
;TYPE:WALL-INNER
G1 F300 Z0.32
G1 F2700 E316.04583
G1 F1200 X273.061 Y295.599 E320.70886
G3 X279.761 Y289.330 I3.841 J-2.609 E322.03748
G1 X279.761 Y278.508 E323.1317
G3 X279.761 Y271.139 I-2.845 J-3.685 E325.22818
G1 X279.761 Y253.16 E327.04605
G1 X279.76 Y223.4 E330.05511
G1 X220.239 Y223.4 E336.07332
G1 X220.24 Y271.158 E340.90217
G3 X220.241 Y278.524 I2.846 J3.683 E342.99907
G1 X220.24 Y289.323 E344.09097
G3 X226.943 Y295.599 I2.847 J3.677 E345.41877
G1 F2700 E340.41877
G1 F300 Z0.52
G0 F6000 X274.655 Y296.121 Z0.52
;TYPE:WALL-OUTER
G1 F300 Z0.32
G1 F2700 E345.41877
G3 X280.412 Y291.394 I2.256 J-3.122 E346.84233 F1200
G1 F1238.7 X280.529 Y291.748 E346.87885
G1 F1335.2 X280.617 Y292.183 E346.91918
G1 F1292.1 X280.562 Y291.405 E346.99242
G1 F1201.5 X280.561 Y276.095 E348.53849
G3 X280.429 Y273.263 I-3.643 J-1.249 E350.69169 F1200
G1 F1237.1 X280.53 Y273.58 E350.72432
G1 F1346.4 X280.624 Y274.074 E350.76964
G1 F1302.6 X280.561 Y273.238 E350.84773
G1 F1200 X280.561 Y253.16 E352.87783
G1 X280.56 Y222.6 E355.96778
G1 X219.439 Y222.6 E362.14777
G1 X219.441 Y273.04 E367.2478
G1 F1224.5 X219.424 Y273.478 E367.29123
G1 F1335.2 X219.376 Y274.087 E367.34675
G1 X219.489 Y273.491 E367.40187
G1 F1224.5 X219.655 Y273.086 E367.44524
G3 X219.668 Y276.605 I3.435 J1.747 E369.52235 F1200
G1 F1207.5 X219.544 Y276.326 E369.55302
G1 F1258.2 X219.446 Y275.985 E369.58724
G1 F1359.8 X219.378 Y275.614 E369.62089
G1 F1307.9 X219.436 Y276.349 E369.68929
G1 F1212.1 X219.437 Y291.644 E371.22032
G1 F1285.1 X219.392 Y292.107 E371.26424
G1 X219.479 Y291.652 E371.30797
G1 F1204.5 X219.641 Y291.281 E371.34875
G3 X224.911 Y296.400 I3.446 J1.724 E372.81194 F1200
G1 X275.096 Y296.399 E377.88619
G1 X274.655 Y296.121 E377.9389
G1 F2700 E372.9389
G1 F300 Z0.52
G0 F6000 X276.185 Y296.591 Z0.52
G1 F300 Z0.32
G1 F2700 E377.9389
G1 F1173.6 X276.312 Y296.599 E377.94547
G1 F2700 E372.94547
G1 F300 Z0.52
G0 F6000 X279.051 Y296.245 Z0.52
G1 F300 Z0.32
G1 F2700 E377.94547
G1 F550.5 X278.851 Y296.364 E377.97112
G1 X280.525 Y296.364 E378.15562
G1 X280.525 Y294.717 E378.33713
G1 F613 X280.614 Y293.886 E378.41984
