;FLAVOR:Marlin
;TIME:3243
;Filament used: 3.2736m
;Layer height: 0.32
;MINX:219
;MINY:235.8
;MINZ:0.32
;MAXX:281
;MAXY:264.2
;MAXZ:93.32
;ARCWELDERPROCESSED
;Post-Processed by AutoTowersGenerator
;AutoTowersGenerator: Post-processing a TempTower
;AutoTowersGenerator: Base height = 0.84 mm
;AutoTowersGenerator: Section height = 8.4 mm
;AutoTowersGenerator: Initial printed layer height = 0.32 mm
;AutoTowersGenerator: Printed layer height = 0.32 mm
;AutoTowersGenerator: Starting temperature = 230%
;AutoTowersGenerator: Temperature change = -5%
;AutoTowersGenerator: Enable LCD messages = False
; Postprocessed by [ArcWelder](https://github.com/FormerLurker/ArcWelderLib)
; Copyright(C) 2021 - Brad Hochgesang
; Version: 1.2.0, Branch: HEAD, BuildDate: 2021-11-21T20:25:43Z
; resolution=0.05mm
; path_tolerance=5.0%
; max_radius=9999.00mm
; g90_influences_extruder=True
; allow_dynamic_precision=True
; default_xyz_precision=3
; default_e_precision=5
; extrusion_rate_variance_percent=5.0%

;Generated with Cura_SteamEngine 5.2.2
M140 S60
M105
M190 S60
M104 S200
M105
M109 S200
M82 ;absolute extrusion mode
M201 X500.00 Y500.00 Z100.00 E5000.00 ;Setup machine max acceleration
M203 X500.00 Y500.00 Z10.00 E50.00 ;Setup machine max feedrate
M204 P500.00 R1000.00 T500.00 ;Setup Print/Retract/Travel acceleration
M205 X8.00 Y8.00 Z0.40 E5.00 ;Setup Jerk
M220 S100 ;Reset Feedrate
M221 S100 ;Reset Flowrate

G28 ;Home

G92 E0 ;Reset Extruder
G1 Z2.0 F3000 ;Move Z Axis up
G1 X10.1 Y20 Z0.28 F5000.0 ;Move to start position
G1 X10.1 Y200.0 Z0.28 F1500.0 E15 ;Draw the first line
G1 X10.4 Y200.0 Z0.28 F5000.0 ;Move to side a little
G1 X10.4 Y20 Z0.28 F1500.0 E30 ;Draw the second line
G92 E0 ;Reset Extruder
G1 Z2.0 F3000 ;Move Z Axis up

G92 E0
G92 E0
G1 F2700 E-5
;LAYER_COUNT:291
;LAYER:0
M107
G1 F300 Z0.52
G0 F6000 X221.42 Y237.839 Z0.52
;TYPE:SKIRT
G1 F300 Z0.32
G1 F2700 E0
G3 X226.600 Y235.800 I5.181 J5.562 E0.57600 F1200
G1 X273.4 Y235.8 E5.30799
G3 X281.000 Y243.400 I-0.000 J7.600 E6.51451
G1 X281 Y256.6 E7.84917
G3 X273.400 Y264.200 I-7.600 J-0.000 E9.05568
G1 X226.6 Y264.2 E13.78767
G3 X219.000 Y256.600 I0.000 J-7.600 E14.99418
G1 X219 Y243.4 E16.32885
G3 X221.420 Y237.839 I7.599 J-0.000 E16.95936
G0 F6000 X222.204 Y238.212
G1 F1200 X222.791 Y237.767 E17.03384
G3 X226.600 Y236.600 I3.810 J5.637 E17.44237
G1 X273.4 Y236.6 E22.17436
G3 X280.200 Y243.400 I-0.001 J6.801 E23.25378
G1 X280.2 Y256.6 E24.58845
G3 X273.400 Y263.400 I-6.801 J-0.001 E25.66787
G1 X226.6 Y263.4 E30.39985
G3 X219.800 Y256.600 I0.001 J-6.801 E31.47928
G1 X219.8 Y243.4 E32.81394
G3 X222.204 Y238.212 I6.798 J-0.001 E33.41034
G0 F6000 X222.984 Y238.612
G1 F1200 X223.559 Y238.227 E33.48031
G3 X226.600 Y237.400 I3.040 J5.172 E33.80256
G1 X273.4 Y237.4 E38.53454
G3 X279.400 Y243.400 I-0.000 J6.000 E39.48698
G1 X279.4 Y256.6 E40.82164
G3 X273.400 Y262.600 I-6.000 J-0.000 E41.77407
G1 X226.6 Y262.6 E46.50606
G3 X220.600 Y256.600 I0.000 J-6.000 E47.45849
G1 X220.6 Y243.4 E48.79315
G3 X222.984 Y238.612 I6.002 J0.001 E49.35336
G0 F6000 X223.24 Y239.431
G1 F1200 X223.757 Y239.046 E49.41854
G3 X226.600 Y238.200 I2.841 J4.348 E49.72250
G1 X273.4 Y238.2 E54.45449
G3 X278.600 Y243.400 I0.001 J5.199 E55.27988
G1 X278.6 Y256.6 E56.61454
G3 X273.400 Y261.800 I-5.199 J0.001 E57.43993
G1 X226.6 Y261.8 E62.17191
G3 X221.400 Y256.600 I-0.001 J-5.199 E62.99730
G1 X221.4 Y243.4 E64.33196
G3 X223.240 Y239.431 I5.199 J-0.001 E64.78821
G0 F6000 X223.564 Y240.216
G1 F1200 X224.019 Y239.836 E64.84815
G3 X226.600 Y239.000 I2.581 J3.567 E65.12680
G1 X273.4 Y239 E69.85879
G3 X277.800 Y243.400 I-0.001 J4.401 E70.55710
G1 X277.8 Y256.6 E71.89177
G3 X273.400 Y261.000 I-4.401 J-0.001 E72.59008
G1 X226.6 Y261 E77.32206
G3 X222.200 Y256.600 I0.001 J-4.401 E78.02038
G1 X222.2 Y243.4 E79.35504
G3 X223.564 Y240.216 I4.394 J-0.002 E79.71476
G0 F6000 X223.955 Y240.958
G1 F1200 X224.347 Y240.592 E79.76898
G3 X226.600 Y239.800 I2.254 J2.810 E80.01490
G1 X273.4 Y239.8 E84.74689
G3 X277.000 Y243.400 I0.000 J3.600 E85.31814
G1 X277 Y256.6 E86.6528
G3 X273.400 Y260.200 I-3.600 J0.000 E87.22405
G1 X226.6 Y260.2 E91.95604
G3 X223.000 Y256.600 I-0.000 J-3.600 E92.52729
G1 X223 Y243.4 E93.86195
G3 X223.955 Y240.958 I3.598 J-0.001 E94.13306
G0 F6000 X224.416 Y241.647
G1 F1200 X224.742 Y241.305 E94.18084
G3 X226.600 Y240.600 I1.857 J2.094 E94.38596
G1 X273.4 Y240.6 E99.11795
G3 X276.200 Y243.400 I0.001 J2.799 E99.56209
G1 X276.2 Y256.6 E100.89675
G3 X273.400 Y259.400 I-2.799 J0.001 E101.34090
G1 X226.6 Y259.4 E106.07288
G3 X223.800 Y256.600 I-0.001 J-2.799 E106.51703
G1 X223.8 Y243.4 E107.85169
G3 X224.416 Y241.647 I2.811 J0.003 E108.04293
G0 F6000 X224.95 Y242.27
G1 F1200 X225.207 Y241.965 E108.08326
G3 X226.600 Y241.400 I1.395 J1.439 E108.23882
G1 X273.4 Y241.4 E112.97081
G3 X275.400 Y243.400 I-0.000 J2.000 E113.28793
G1 X275.4 Y256.6 E114.62259
G3 X273.400 Y258.600 I-2.000 J-0.000 E114.93971
G1 X226.6 Y258.6 E119.67169
G3 X224.600 Y256.600 I0.000 J-2.000 E119.98881
G1 X224.6 Y243.4 E121.32347
G3 X224.950 Y242.270 I1.999 J-0.000 E121.44470
G0 F6000 X225.557 Y242.807
G1 F1200 X225.743 Y242.56 E121.47596
G3 X226.600 Y242.200 I0.856 J0.837 E121.57219
G1 X273.4 Y242.2 E126.30418
G3 X274.600 Y243.400 I0.000 J1.200 E126.49422
G1 X274.6 Y256.6 E127.82889
G3 X273.400 Y257.800 I-1.200 J0.000 E128.01893
G1 X226.6 Y257.8 E132.75092
G3 X225.400 Y256.600 I-0.000 J-1.200 E132.94096
G1 X225.4 Y243.4 E134.27562
G3 X225.557 Y242.807 I1.199 J0.000 E134.33817
G0 F6000 X226.24 Y243.227
G1 F1200 X226.35 Y243.088 E134.35609
G1 X226.531 Y243 E134.37644
G1 X273.4 Y243 E139.1154
G3 X273.800 Y243.331 I-0.009 J0.418 E139.17163
G1 X273.8 Y256.6 E140.51327
G3 X273.469 Y257.000 I-0.418 J-0.009 E140.56954
G1 X226.6 Y257 E145.3085
G3 X226.200 Y256.669 I0.009 J-0.418 E145.36477
G1 X226.2 Y243.4 E146.7064
G1 X226.24 Y243.227 E146.72436
G1 F2700 E141.72436
G1 F300 Z0.52
;MESH:AutoTowersGenerator
G0 F6000 X272.2 Y244.6 Z0.52
;TYPE:WALL-INNER
G1 F300 Z0.32
G1 F2700 E146.72436
G1 F1200 X227.8 Y244.6 E151.21368
G1 X227.8 Y255.4 E152.30567
G1 X272.2 Y255.4 E156.79499
G1 X272.2 Y250 E157.34099
G1 X272.2 Y244.6 E157.88699
G0 F6000 X273 Y243.8
;TYPE:WALL-OUTER
G1 F1200 X227 Y243.8 E162.53809
G1 X227 Y256.2 E163.79186
G1 X273 Y256.2 E168.44296
G1 X273 Y250 E169.06985
G1 X273 Y243.8 E169.69673
G1 F2700 E164.69673
G1 F300 Z0.52
G0 F6000 X271.48 Y245.32 Z0.52
;TYPE:SKIN
G1 F300 Z0.32
G1 F2700 E169.69673
G1 F1200 X228.52 Y245.32 E174.04045
G1 X228.52 Y254.68 E174.98685
G1 X271.48 Y254.68 E179.33057
G1 X271.48 Y250 E179.80377
G1 X271.48 Y245.32 E180.27697
G0 F6000 X271.079 Y246.189
G1 F1200 X270.609 Y245.719 E180.34418
G0 F6000 X269.478 Y245.719
G1 F1200 X271.079 Y247.32 E180.57311
G0 F6000 X271.079 Y248.451
G1 F1200 X268.347 Y245.719 E180.96376
G0 F6000 X267.215 Y245.719
G1 F1200 X271.079 Y249.583 E181.51628
G0 F6000 X271.079 Y250.714
G1 F1200 X266.084 Y245.719 E182.23053
G0 F6000 X264.952 Y245.719
G1 F1200 X271.079 Y251.845 E183.10657
G0 F6000 X271.079 Y252.977
G1 F1200 X263.821 Y245.719 E184.14441
G0 F6000 X262.69 Y245.719
G1 F1200 X271.079 Y254.108 E185.34397
G0 F6000 X270.118 Y254.279
G1 F1200 X261.558 Y245.719 E186.56799
G0 F6000 X260.427 Y245.719
G1 F1200 X268.986 Y254.279 E187.79193
G0 F6000 X267.855 Y254.279
G1 F1200 X259.296 Y245.719 E189.01587
G0 F6000 X258.164 Y245.719
G1 F1200 X266.724 Y254.279 E190.23989
G0 F6000 X265.592 Y254.279
G1 F1200 X257.033 Y245.719 E191.46383
G0 F6000 X255.901 Y245.719
G1 F1200 X264.461 Y254.279 E192.68784
G0 F6000 X263.33 Y254.279
G1 F1200 X254.77 Y245.719 E193.91186
G0 F6000 X253.639 Y245.719
G1 F1200 X262.198 Y254.279 E195.1358
G0 F6000 X261.067 Y254.279
G1 F1200 X252.507 Y245.719 E196.35981
G0 F6000 X251.376 Y245.719
G1 F1200 X259.935 Y254.279 E197.58375
G0 F6000 X258.804 Y254.279
G1 F1200 X250.245 Y245.719 E198.8077
G0 F6000 X249.113 Y245.719
G1 F1200 X257.673 Y254.279 E200.03171
G0 F6000 X256.541 Y254.279
G1 F1200 X247.982 Y245.719 E201.25565
G0 F6000 X246.85 Y245.719
G1 F1200 X255.41 Y254.279 E202.47967
G0 F6000 X254.279 Y254.279
G1 F1200 X245.719 Y245.719 E203.70368
G0 F6000 X244.588 Y245.719
G1 F1200 X253.147 Y254.279 E204.92762
G0 F6000 X252.016 Y254.279
G1 F1200 X243.456 Y245.719 E206.15164
G0 F6000 X242.325 Y245.719
G1 F1200 X250.885 Y254.279 E207.37565
G0 F6000 X249.753 Y254.279
G1 F1200 X241.194 Y245.719 E208.59959
G0 F6000 X240.062 Y245.719
G1 F1200 X248.622 Y254.279 E209.82361
G0 F6000 X247.49 Y254.279
G1 F1200 X238.931 Y245.719 E211.04755
G0 F6000 X237.8 Y245.719
G1 F1200 X246.359 Y254.279 E212.27149
G0 F6000 X245.228 Y254.279
G1 F1200 X236.668 Y245.719 E213.49551
G0 F6000 X235.537 Y245.719
G1 F1200 X244.096 Y254.279 E214.71945
G0 F6000 X242.965 Y254.279
G1 F1200 X234.405 Y245.719 E215.94346
G0 F6000 X233.274 Y245.719
G1 F1200 X241.834 Y254.279 E217.16748
G0 F6000 X240.702 Y254.279
G1 F1200 X232.143 Y245.719 E218.39142
G0 F6000 X231.011 Y245.719
G1 F1200 X239.571 Y254.279 E219.61543
G0 F6000 X238.439 Y254.279
G1 F1200 X229.88 Y245.719 E220.83937
G0 F6000 X228.919 Y245.89
G1 F1200 X237.308 Y254.279 E222.03894
G0 F6000 X236.177 Y254.279
G1 F1200 X228.919 Y247.021 E223.07678
G0 F6000 X228.919 Y248.152
G1 F1200 X235.045 Y254.279 E223.95282
G0 F6000 X233.914 Y254.279
G1 F1200 X228.919 Y249.284 E224.66706
G0 F6000 X228.919 Y250.415
G1 F1200 X232.783 Y254.279 E225.21959
G0 F6000 X231.651 Y254.279
G1 F1200 X228.919 Y251.546 E225.61031
G0 F6000 X228.919 Y252.678
G1 F1200 X230.52 Y254.279 E225.83924
G0 F6000 X229.388 Y254.279
G1 F1200 X228.919 Y253.809 E225.90638
G1 F2700 E220.90638
G1 F300 Z0.52
;MESH:NONMESH
G0 F6000 X272.2 Y244.6 Z0.52
;TIME_ELAPSED:124.905765
;LAYER:1
M106 S127.5
;MESH:AutoTowersGenerator
G0 F7500 X272.2 Y244.6 Z0.84
;TYPE:WALL-INNER
G1 F300 Z0.64
G1 F2700 E225.90638
G1 F1350 X227.8 Y244.6 E230.3957
G1 X227.8 Y255.4 E231.48769
G1 X272.2 Y255.4 E235.97701
G1 X272.2 Y244.6 E237.06901
G0 F7500 X273 Y243.8
;TYPE:WALL-OUTER
G1 F1350 X227 Y243.8 E241.72011
G1 X227 Y256.2 E242.97388
G1 X273 Y256.2 E247.62498
G1 X273 Y243.8 E248.87875
G1 F2700 E243.87875
G1 F300 Z0.84
G0 F7500 X271.48 Y245.32 Z0.84
;TYPE:SKIN
G1 F300 Z0.64
G1 F2700 E248.87875
G1 F1350 X266.8 Y245.32 E249.35195
G1 X228.52 Y245.32 E253.22247
G1 X228.52 Y254.68 E254.16887
G1 X271.48 Y254.68 E258.51259
G1 X271.48 Y245.32 E259.45899
G1 F2700 E254.45899
G1 F300 Z0.84
G0 F7500 X270.676 Y254.279 Z0.84
G1 F300 Z0.64
G1 F2700 E259.45899
G1 F1350 X271.079 Y253.876 E259.51662
G0 F7500 X271.079 Y252.745
G1 F1350 X269.544 Y254.279 E259.73604
G0 F7500 X268.413 Y254.279
G1 F1350 X271.079 Y251.614 E260.11718
G0 F7500 X271.079 Y250.482
G1 F1350 X267.282 Y254.279 E260.66012
G0 F7500 X266.15 Y254.279
G1 F1350 X271.079 Y249.351 E261.36486
G0 F7500 X271.079 Y248.219
G1 F1350 X265.019 Y254.279 E262.2314
G0 F7500 X263.888 Y254.279
G1 F1350 X271.079 Y247.088 E263.25965
G0 F7500 X271.079 Y245.957
G1 F1350 X262.756 Y254.279 E264.44971
G0 F7500 X261.625 Y254.279
G1 F1350 X270.185 Y245.719 E265.67372
G0 F7500 X269.054 Y245.719
G1 F1350 X260.493 Y254.279 E266.89781
G0 F7500 X259.362 Y254.279
G1 F1350 X267.922 Y245.719 E268.12182
G0 F7500 X266.791 Y245.719
G1 F1350 X258.231 Y254.279 E269.34583
G0 F7500 X257.099 Y254.279
G1 F1350 X265.66 Y245.719 E270.56992
G0 F7500 X264.528 Y245.719
G1 F1350 X255.968 Y254.279 E271.79393
G0 F7500 X254.837 Y254.279
G1 F1350 X263.397 Y245.719 E273.01795
G0 F7500 X262.265 Y245.719
G1 F1350 X253.705 Y254.279 E274.24196
G0 F7500 X252.574 Y254.279
G1 F1350 X261.134 Y245.719 E275.46597
G0 F7500 X260.003 Y245.719
G1 F1350 X251.442 Y254.279 E276.69006
G0 F7500 X250.311 Y254.279
G1 F1350 X258.871 Y245.719 E277.91407
G0 F7500 X257.74 Y245.719
G1 F1350 X249.18 Y254.279 E279.13809
G0 F7500 X248.048 Y254.279
G1 F1350 X256.609 Y245.719 E280.36217
G0 F7500 X255.477 Y245.719
G1 F1350 X246.917 Y254.279 E281.58619
G0 F7500 X245.786 Y254.279
G1 F1350 X254.346 Y245.719 E282.8102
G0 F7500 X253.214 Y245.719
G1 F1350 X244.654 Y254.279 E284.03421
G0 F7500 X243.523 Y254.279
G1 F1350 X252.083 Y245.719 E285.25823
G0 F7500 X250.952 Y245.719
G1 F1350 X242.391 Y254.279 E286.48231
G0 F7500 X241.26 Y254.279
G1 F1350 X249.82 Y245.719 E287.70633
G0 F7500 X248.689 Y245.719
G1 F1350 X240.129 Y254.279 E288.93034
G0 F7500 X238.997 Y254.279
G1 F1350 X247.558 Y245.719 E290.15443
G0 F7500 X246.426 Y245.719
G1 F1350 X237.866 Y254.279 E291.37844
G0 F7500 X236.735 Y254.279
G1 F1350 X245.295 Y245.719 E292.60245
G0 F7500 X244.163 Y245.719
G1 F1350 X235.603 Y254.279 E293.82647
G0 F7500 X234.472 Y254.279
G1 F1350 X243.032 Y245.719 E295.05048
G0 F7500 X241.901 Y245.719
G1 F1350 X233.34 Y254.279 E296.27457
G0 F7500 X232.209 Y254.279
G1 F1350 X240.769 Y245.719 E297.49858
G0 F7500 X239.638 Y245.719
G1 F1350 X231.078 Y254.279 E298.7226
G0 F7500 X229.946 Y254.279
G1 F1350 X238.507 Y245.719 E299.94668
G0 F7500 X237.375 Y245.719
G1 F1350 X228.92 Y254.175 E301.15575
G0 F7500 X228.92 Y253.043
G1 F1350 X236.244 Y245.719 E302.20303
G0 F7500 X235.113 Y245.719
G1 F1350 X228.92 Y251.912 E303.08858
G0 F7500 X228.92 Y250.781
G1 F1350 X233.981 Y245.719 E303.81233
G0 F7500 X232.85 Y245.719
G1 F1350 X228.92 Y249.649 E304.37429
G0 F7500 X228.92 Y248.518
G1 F1350 X231.718 Y245.719 E304.77446
G0 F7500 X230.587 Y245.719
G1 F1350 X228.92 Y247.386 E305.01283
G0 F7500 X228.92 Y246.255
G1 F1350 X229.456 Y245.719 E305.08947
G1 F2700 E300.08947
G1 F300 Z0.84
;MESH:NONMESH
G0 F7500 X272.2 Y244.6 Z0.84
;TIME_ELAPSED:166.487163
;LAYER:2
;AutoTowersGenerator: Starting tower section number 1 at Cura layer number 3
M104 S230 ;AutoTowersGenerator: setting temperature to 230 for this tower section
M106 S255
;MESH:AutoTowersGenerator
G0 F9000 X272.2 Y244.6 Z1.16
;TYPE:WALL-INNER
G1 F300 Z0.96
G1 F2700 E305.08947
G1 F1500 X266.8 Y244.6 E305.63547
G1 X227.8 Y244.6 E309.57879
G1 X227.8 Y255.4 E310.67079
G1 X272.2 Y255.4 E315.16011
G1 X272.2 Y244.6 E316.2521
G0 F9000 X273 Y243.8
;TYPE:WALL-OUTER
G1 F1500 X266.8 Y243.8 E316.87899
G1 X227 Y243.8 E320.9032
G1 X227 Y256.2 E322.15698
G1 X273 Y256.2 E326.80807
G1 X273 Y243.8 E328.06185
G1 F2700 E323.06185
G1 F300 Z1.16
G0 F9000 X271.48 Y245.32 Z1.16
;TYPE:SKIN
G1 F300 Z0.96
G1 F2700 E328.06185
G1 F1500 X228.52 Y245.32 E332.40557
G1 X228.52 Y254.68 E333.35196
G1 X271.48 Y254.68 E337.69568
G1 X271.48 Y250 E338.16888
G1 X271.48 Y245.32 E338.64208
G0 F9000 X271.079 Y246.189
G1 F1500 X270.609 Y245.719 E338.70929
G0 F9000 X269.478 Y245.719
G1 F1500 X271.079 Y247.32 E338.93822
G0 F9000 X271.079 Y248.451
G1 F1500 X268.347 Y245.719 E339.32887
G0 F9000 X267.215 Y245.719
G1 F1500 X271.079 Y249.583 E339.8814
G0 F9000 X271.079 Y250.714
G1 F1500 X266.084 Y245.719 E340.59564
G0 F9000 X264.952 Y245.719
G1 F1500 X271.079 Y251.845 E341.47168
G0 F9000 X271.079 Y252.977
G1 F1500 X263.821 Y245.719 E342.50952
G0 F9000 X262.69 Y245.719
G1 F1500 X271.079 Y254.108 E343.70908
G0 F9000 X270.118 Y254.279
G1 F1500 X261.558 Y245.719 E344.9331
G0 F9000 X260.427 Y245.719
G1 F1500 X268.986 Y254.279 E346.15704
G0 F9000 X267.855 Y254.279
G1 F1500 X259.296 Y245.719 E347.38098
G0 F9000 X258.164 Y245.719
G1 F1500 X266.724 Y254.279 E348.605
G0 F9000 X265.592 Y254.279
G1 F1500 X257.033 Y245.719 E349.82894
G0 F9000 X255.901 Y245.719
G1 F1500 X264.461 Y254.279 E351.05295
G0 F9000 X263.33 Y254.279
G1 F1500 X254.77 Y245.719 E352.27697
G0 F9000 X253.639 Y245.719
G1 F1500 X262.198 Y254.279 E353.50091
G0 F9000 X261.067 Y254.279
G1 F1500 X252.507 Y245.719 E354.72492
G0 F9000 X251.376 Y245.719
G1 F1500 X259.935 Y254.279 E355.94887
G0 F9000 X258.804 Y254.279
G1 F1500 X250.245 Y245.719 E357.17281
G0 F9000 X249.113 Y245.719
G1 F1500 X257.673 Y254.279 E358.39682
G0 F9000 X256.541 Y254.279
G1 F1500 X247.982 Y245.719 E359.62076
G0 F9000 X246.85 Y245.719
G1 F1500 X255.41 Y254.279 E360.84478
G0 F9000 X254.279 Y254.279
G1 F1500 X245.719 Y245.719 E362.06879
G0 F9000 X244.588 Y245.719
G1 F1500 X253.147 Y254.279 E363.29274
G0 F9000 X252.016 Y254.279
G1 F1500 X243.456 Y245.719 E364.51675
G0 F9000 X242.325 Y245.719
G1 F1500 X250.885 Y254.279 E365.74076
G0 F9000 X249.753 Y254.279
G1 F1500 X241.194 Y245.719 E366.96471
G0 F9000 X240.062 Y245.719
G1 F1500 X248.622 Y254.279 E368.18872
G0 F9000 X247.49 Y254.279
